www/assets/icons/ssid_chart.svg

<svg xmlns="http://www.w3.org/2000/svg" width="24" height="24" viewBox="0 0 24 24" fill='currentColor'><path d="M21 5.47 12 12 7.62 7.62 3 11V8.52L7.83 5l4.38 4.38L21 3zM21 15h-4.7l-4.17 3.34L6 12.41l-3 2.13V17l2.8-2 6.2 6 5-4h4z"/></svg>

<svg width="24" height="24" viewBox="0 0 24 24" xmlns="http://www.w3.org/2000/svg" fill='currentColor'><path d="M21 5.47L12 12L7.62 7.62L3 11V8.52L7.83 5L12.21 9.38L21 3V5.47ZM21 15H16.3L12.13 18.34L6 12.41L3 14.54V17L5.8 15L12 21L17 17H21V15Z"/></svg>
